brandFactory_export/1.Light/Pen drive pendrive _1Light.svg

<?xml version="1.0" encoding="UTF-8"?>
<svg width="24px" height="24px" viewBox="0 0 24 24" version="1.1" xmlns="http://www.w3.org/2000/svg" xmlns:xlink="http://www.w3.org/1999/xlink">
    <title>1.Light/Pen drive pendrive _1Light</title>
    <g id="Symbols" stroke="none" stroke-width="1" fill="none" fill-rule="evenodd">
        <g id="1.Light/Pen-drive-pendrive-_1Light" fill="#5CB615" fill-rule="nonzero">
            <path d="M4.96470588,11.1478992 C5.5697479,11.1478992 5.95966387,11.4705882 5.95966387,12.1663866 C5.95966387,12.502521 5.86890756,12.7478992 5.70756303,12.9159664 C5.53277311,13.097479 5.27731092,13.1848739 4.96134454,13.1848739 C4.6487395,13.1848739 4.38991597,13.097479 4.21848739,12.9159664 C4.05714286,12.7478992 3.96638655,12.4991597 3.96638655,12.1663866 C3.96638655,11.4705882 4.36302521,11.1478992 4.96470588,11.1478992 Z M22.6386555,14.707563 L22.6386555,9.04369748 C22.6285714,8.54285714 22.2487395,8.12268908 21.7781513,8.08571429 L19.6638655,8.08571429 L19.6638655,15.6689076 L21.7243697,15.6689076 C22.2285714,15.6689076 22.6386555,15.2386555 22.6386555,14.707563 Z M18.692437,16.4252101 L18.692437,16.1764706 L18.6756303,16.1764706 L18.6756303,7.37983193 C18.6756303,6.63361345 18.097479,6.03193277 17.3848739,6.03193277 L6.28907563,6.03193277 C2.77647059,6.14621849 0.98487395,8.11932773 0.98487395,11.8941176 C0.98487395,15.6655462 2.77310924,17.6453782 6.30588235,17.7764706 L17.4016807,17.7764706 C18.1142857,17.7764706 18.692437,17.1714286 18.692437,16.4252101 Z M21.707563,7.06386555 C22.7428571,7.06386555 23.6033613,7.94453782 23.6235294,9.03361345 L23.6235294,14.707563 C23.6235294,15.7966387 22.7697479,16.687395 21.7243697,16.687395 L19.6672269,16.687395 C19.5428571,17.8705882 18.5747899,18.794958 17.4016807,18.794958 L6.28907563,18.794958 C2.22857143,18.6436975 0,16.1932773 0,11.8941176 C0,7.58823529 2.22857143,5.14453782 6.27563025,5.01344538 L17.3882353,5.01344538 C18.5411765,5.01344538 19.4957983,5.90756303 19.6436975,7.06722689 L20.7865546,7.06722689 L20.7831933,7.06386555 L21.707563,7.06386555 Z" id="Pen-drive-pendrive-_1Light"></path>
        </g>
    </g>
</svg>

<svg width="24" height="24" viewBox="0 0 24 24" xmlns="http://www.w3.org/2000/svg"><path d="M4.965 11.148c.605 0 .995.323.995 1.018 0 .337-.091.582-.252.75-.175.181-.43.269-.747.269-.312 0-.571-.088-.743-.269-.16-.168-.252-.417-.252-.75 0-.695.397-1.018.999-1.018zm17.674 3.56V9.044c-.01-.501-.39-.921-.86-.958h-2.115v7.583h2.06c.505 0 .915-.43.915-.961zm-3.947 1.717v-.249h-.016V7.38c0-.746-.579-1.348-1.291-1.348H6.289C2.776 6.146.985 8.119.985 11.894c0 3.772 1.788 5.751 5.32 5.882h11.097c.712 0 1.29-.605 1.29-1.35zm3.016-9.361c1.035 0 1.895.88 1.916 1.97v5.674c0 1.089-.854 1.98-1.9 1.98h-2.057c-.124 1.183-1.092 2.107-2.265 2.107H6.289C2.23 18.644 0 16.193 0 11.895c0-4.307 2.229-6.75 6.276-6.882h11.112c1.153 0 2.108.895 2.256 2.054h1.143l-.004-.003h.925z" fill="#5CB615" fill-rule="nonzero"/></svg>
